X:1
T:Title
%%score 1 { 2 | 3 }
L:1/8
Q:1/4=104
M:4/4
K:A
V:1 treble nm="Grand Piano, Soprano"
V:2 bass nm="Choir Pad, I Hope to Meet You All"
V:3 bass 
V:1
 [CE]2 [CE]>[B,D] [A,C]>[B,D] [CE]2 | [CA]2 [Ec]4 [CA]2 | E>E [DF]2 [FA]2 [EG]2 | [DF]2 [CE]6 | %4
w: By~William~James~Kirkpatrick * * * * *||||
 [CE]2 [CE]>[B,D] [A,C]>[B,D] [CE]2 | [CA]2 [Ec]4 [CA]2 | [EA]>[EA] [FB]2 [Fd]2 [Ec]2 | %7
w: |||
 [DB]2 [CA]6 | [EA]>[EA] [EG]2 [EB]2 [EB]2 | [EB]>[EB] [EA]2 [Ac]2 [Ac]2 | %10
w: |||
 [Ac]>[Ac] [GB]2 [Gd]2 [Gd]2 | [Gc]>[GB] [Ac]2 [Ae]2 [Ae]2 | [Gd]2 [Ec]>[Ed] [Ee]>[Ed] [Ec]2- | %13
w: |||
 [Ec][EB] [EA]>[EB] [Ec]>[EB] [EA]2- | [EA][EG] [DF]>[EG] [FA]>[DF] [CE]2 | [CA]2 [EB]4 [EA]2- | %16
w: |||
 [EA]6 z2 |] %17
w: |
V:2
 A,2 E,>E, E,>E, A,2 | E,2 A,4 E,2 | A,>A, A,2 A,2 A,2 | A,2 A,6 | A,2 E,>E, E,>E, A,2 | %5
 E,2 A,4 E,2 | A,>A, A,2 A,2 A,2 | G,2 A,6 | C>C B,2 D2 D2 | D>D C2 E2 E2 | E>E E2 B,2 B,2 | %11
 E>E E2 C2 C2 | B,2 A,>B, C>B, A,2- | A,[K:treble]D C>D E>D C2- | %14
 C[K:bass]A, A,>A, A,>A,[K:treble] E2 | E2 E4 C2- | C6 z2 |] %17
V:3
 A,,2 A,,>A,, A,,>A,, A,,2 | A,,2 A,,4 A,,2 | C,>C, D,2 D,2 D,2 | D,2 A,,6 | %4
 A,,2 A,,>A,, A,,>A,, A,,2 | A,,2 A,,4 A,,2 | C,>C, D,2 D,2 E,2 | E,2 A,,6 | A,,>A,, E,2 E,2 E,2 | %9
 E,>E, A,2 A,2 A,2 | A,>A, E,2 E,2 E,2 | E,>E, A,2 A,2 A,2 | E,2 z z/ A,/ A,>A, z2 | %13
 z E, A,,>A,, A,,>A,, A,,2- | A,,C, D,>D, D,>D, E,2 | E,2 E,4 [A,,A,]2- | [A,,A,]6 z2 |] %17

